src/epub/images/titlepage.svg

<?xml version="1.0" encoding="utf-8"?>
<svg xmlns="http://www.w3.org/2000/svg" xmlns:svg="http://www.w3.org/2000/svg" version="1.1" viewBox="0 0 1400 340">
	<title>The titlepage for the Standard Ebooks edition of The Voyage Out, by Virginia Woolf</title>
	<g>
		<path d="m 245.64254,68.245613 18.33918,0 0,61.754387 17.59064,0 0,-61.754387 18.33918,0 0,-15.438597 -54.269,0 0,15.438597 z"/>
		<path d="m 328.83698,99.029239 24.88889,0 0,30.970761 17.59064,0 0,-77.192984 -17.59064,0 0,30.783626 -24.88889,0 0,-30.783626 -17.59064,0 0,77.192984 17.59064,0 0,-30.970761 z"/>
		<path d="m 431.68202,52.807016 -44.16375,0 0,77.192984 44.16375,0 0,-15.4386 -26.5731,0 0,-15.532161 25.45029,0 0,-15.438597 -25.45029,0 0,-15.345029 26.5731,0 0,-15.438597 z"/>
		<path d="m 493.4788,130 13.84795,0 32.37427,-77.192984 -19.83626,0 -19.46198,50.713454 -19.46199,-50.713454 -19.83626,0 L 493.4788,130 Z"/>
		<path d="m 541.23464,91.356724 c 0,22.549706 16.09357,40.046786 38.92398,40.046786 22.17544,0 38.83041,-17.49708 38.83041,-40.046786 0,-22.549708 -17.40351,-39.953217 -38.83041,-39.953217 -21.23977,0 -38.92398,17.403509 -38.92398,39.953217 z m 18.99416,0 c 0,-11.508772 6.36257,-23.017544 19.92982,-23.017544 13.66082,0 19.83626,11.508772 19.83626,23.017544 0,11.508776 -5.80117,23.017546 -19.83626,23.017546 -14.40936,0 -19.92982,-11.50877 -19.92982,-23.017546 z"/>
		<path d="m 623.32969,52.807016 28.44444,42.5731 0,34.619884 17.59065,0 0,-34.619884 28.44444,-42.5731 -21.1462,0 -16.09357,24.701755 -16.09356,-24.701755 -21.1462,0 z"/>
		<path d="m 736.44517,52.807016 -16.28071,0 L 689.00657,130 l 18.90058,0 5.70761,-15.4386 29.38011,0 5.70761,15.4386 18.90058,0 -31.15789,-77.192984 z m 0.5614,46.31579 -17.40351,0 8.60819,-22.45614 0.18713,0 8.60819,22.45614 z"/>
		<path d="m 845.32385,86.771929 -35.64912,0 0,13.567251 17.77778,0 c 0,9.45029 -8.32749,14.87719 -16.74854,14.87719 -10.8538,0 -19.64912,-10.66666 -19.64912,-23.766078 0,-13.380117 8.79532,-24.140352 19.64912,-24.140352 6.83041,0 12.72515,2.713451 17.21637,9.918129 L 839.42912,64.59649 c -6.73685,-8.140351 -16.18714,-13.192983 -29.75439,-13.192983 -21.7076,0 -37.61404,17.871346 -37.61404,40.046785 0,22.081868 16.84211,39.953218 37.61404,39.953218 15.15789,0 31.4386,-8.32749 35.64912,-27.88304 l 0,-16.748541 z"/>
		<path d="m 902.17178,52.807016 -44.16375,0 0,77.192984 44.16375,0 0,-15.4386 -26.5731,0 0,-15.532161 25.45029,0 0,-15.438597 -25.45029,0 0,-15.345029 26.5731,0 0,-15.438597 z"/>
		<path d="m 944.40719,91.356724 c 0,22.549706 16.09357,40.046786 38.92398,40.046786 22.17543,0 38.83043,-17.49708 38.83043,-40.046786 0,-22.549708 -17.4035,-39.953217 -38.83043,-39.953217 -21.23977,0 -38.92398,17.403509 -38.92398,39.953217 z m 18.99415,0 c 0,-11.508772 6.36258,-23.017544 19.92983,-23.017544 13.66082,0 19.83623,11.508772 19.83623,23.017544 0,11.508776 -5.80114,23.017546 -19.83623,23.017546 -14.40936,0 -19.92983,-11.50877 -19.92983,-23.017546 z"/>
		<path d="m 1094.2449,52.807016 -17.5906,0 0,44.63158 c 0,12.912284 -3.9299,16.654974 -12.5381,16.654974 -8.6081,0 -12.538,-3.74269 -12.538,-16.654974 l 0,-44.63158 -17.5906,0 0,49.777774 c 0,19.08772 10.4795,28.81872 30.1286,28.81872 19.6492,0 30.1287,-9.731 30.1287,-28.81872 l 0,-49.777774 z"/>
		<path d="m 1100.1162,68.245613 18.3392,0 0,61.754387 17.5907,0 0,-61.754387 18.3391,0 0,-15.438597 -54.269,0 0,15.438597 z"/>
	</g>
	<g>
		<path d="m 373.13542,290 10.38596,0 24.28071,-57.89474 -14.8772,0 -14.59649,38.03509 -14.59649,-38.03509 -14.87719,0 L 373.13542,290 Z"/>
		<path d="m 428.18476,232.10526 -13.19298,0 0,57.89474 13.19298,0 0,-57.89474 z"/>
		<path d="m 441.64748,232.10526 0,57.89474 13.19298,0 0,-22.87719 17.68421,22.87719 16.77193,0 -19.92982,-23.92982 c 7.08772,-2.24562 11.85965,-8.07018 11.85965,-16.77193 0,-11.36842 -8.14035,-17.19299 -18.87719,-17.19299 l -20.70176,0 z m 13.19298,25.68421 0,-15.15789 1.54386,0 c 4.98246,0 10.94737,0.35088 10.94737,7.57895 0,7.22807 -5.96491,7.57894 -10.94737,7.57894 l -1.54386,0 z"/>
		<path d="m 549.29989,257.57895 -26.73684,0 0,10.17544 13.33333,0 c 0,7.08772 -6.24562,11.15789 -12.56141,11.15789 -8.14035,0 -14.73684,-8 -14.73684,-17.82456 0,-10.03509 6.59649,-18.10526 14.73684,-18.10526 5.12281,0 9.54386,2.03508 12.91229,7.43859 l 8.63157,-9.47368 c -5.05263,-6.10526 -12.14035,-9.89474 -22.31578,-9.89474 -16.28071,0 -28.21053,13.40351 -28.21053,30.03509 0,16.5614 12.63158,29.96491 28.21053,29.96491 11.36842,0 23.57894,-6.24561 26.73684,-20.91228 l 0,-12.5614 z"/>
		<path d="m 573.25604,232.10526 -13.19299,0 0,57.89474 13.19299,0 0,-57.89474 z"/>
		<path d="m 599.91174,254.07018 0.14035,0 23.01754,35.92982 13.19298,0 0,-57.89474 -13.19298,0 0,35.92983 -0.14035,0 -23.01754,-35.92983 -13.19298,0 0,57.89474 13.19298,0 0,-35.92982 z"/>
		<path d="m 662.8887,232.10526 -13.19299,0 0,57.89474 13.19299,0 0,-57.89474 z"/>
		<path d="m 705.75492,232.10526 -12.21052,0 L 670.17598,290 l 14.17543,0 4.28071,-11.57895 22.03508,0 4.28071,11.57895 14.17543,0 -23.36842,-57.89474 z m 0.42106,34.73685 -13.05264,0 6.45614,-16.84211 0.14036,0 6.45614,16.84211 z"/>
		<path d="m 798.892,290 14.5965,0 16.49122,-57.89474 -14.59649,0 -9.89473,39.7193 -0.35088,0 -10.52632,-39.7193 -9.96491,0 -10.52631,39.7193 -0.35088,0 -9.89474,-39.7193 -14.66667,0 16.49123,57.89474 14.66667,0 9.26316,-32.49123 L 798.892,290 Z"/>
		<path d="m 833.35472,261.01754 c 0,16.91228 12.07017,30.03509 29.19298,30.03509 16.63158,0 29.12281,-13.12281 29.12281,-30.03509 0,-16.91228 -13.05264,-29.96491 -29.12281,-29.96491 -15.92983,0 -29.19298,13.05263 -29.19298,29.96491 z m 14.24561,0 c 0,-8.63157 4.77193,-17.26315 14.94737,-17.26315 10.24561,0 14.87719,8.63158 14.87719,17.26315 0,8.63158 -4.35088,17.26316 -14.87719,17.26316 -10.80702,0 -14.94737,-8.63158 -14.94737,-17.26316 z"/>
		<path d="m 899.89527,261.01754 c 0,16.91228 12.07018,30.03509 29.19299,30.03509 16.63158,0 29.1228,-13.12281 29.1228,-30.03509 0,-16.91228 -13.05263,-29.96491 -29.1228,-29.96491 -15.92983,0 -29.19299,13.05263 -29.19299,29.96491 z m 14.24562,0 c 0,-8.63157 4.77193,-17.26315 14.94737,-17.26315 10.24561,0 14.87719,8.63158 14.87719,17.26315 0,8.63158 -4.35088,17.26316 -14.87719,17.26316 -10.80702,0 -14.94737,-8.63158 -14.94737,-17.26316 z"/>
		<path d="m 982.22534,232.10526 -13.19299,0 0,57.89474 33.12285,0 0,-11.57895 -19.92986,0 0,-46.31579 z"/>
		<path d="m 1047.1168,232.10526 -33.4737,0 0,57.89474 13.193,0 0,-23.22807 18.7368,0 0,-11.57895 -18.7368,0 0,-11.50877 20.2807,0 0,-11.57895 z"/>
	</g>
</svg>

<?xml version="1.0" encoding="utf-8"?>
<svg xmlns="http://www.w3.org/2000/svg" xmlns:svg="http://www.w3.org/2000/svg" version="1.1" viewBox="0 0 1400 340">
	<title>The titlepage for the Standard Ebooks edition of The Voyage Out, by Virginia Woolf</title>
	<g aria-label="THE VOYAGE OUT">
		<path d="m 245.64254,68.245613 h 18.33918 V 130 h 17.59064 V 68.245613 h 18.33918 V 52.807016 h -54.269 z"/>
		<path d="m 328.83698,99.029239 h 24.88889 V 130 h 17.59064 V 52.807016 H 353.72587 V 83.590642 H 328.83698 V 52.807016 H 311.24634 V 130 h 17.59064 z"/>
		<path d="M 431.68202,52.807016 H 387.51827 V 130 h 44.16375 v -15.4386 h -26.5731 V 99.029239 h 25.45029 V 83.590642 H 405.10892 V 68.245613 h 26.5731 z"/>
		<path d="m 493.4788,130 h 13.84795 L 539.70102,52.807016 H 519.86476 L 500.40278,103.52047 480.94079,52.807016 h -19.83626 z"/>
		<path d="m 541.23464,91.356724 c 0,22.549706 16.09357,40.046786 38.92398,40.046786 22.17544,0 38.83041,-17.49708 38.83041,-40.046786 0,-22.549708 -17.40351,-39.953217 -38.83041,-39.953217 -21.23977,0 -38.92398,17.403509 -38.92398,39.953217 z m 18.99416,0 c 0,-11.508772 6.36257,-23.017544 19.92982,-23.017544 13.66082,0 19.83626,11.508772 19.83626,23.017544 0,11.508776 -5.80117,23.017546 -19.83626,23.017546 -14.40936,0 -19.92982,-11.50877 -19.92982,-23.017546 z"/>
		<path d="m 623.32969,52.807016 28.44444,42.5731 V 130 h 17.59065 V 95.380116 l 28.44444,-42.5731 h -21.1462 L 660.56945,77.508771 644.47589,52.807016 Z"/>
		<path d="M 736.44517,52.807016 H 720.16446 L 689.00657,130 h 18.90058 l 5.70761,-15.4386 h 29.38011 L 748.70248,130 h 18.90058 z m 0.5614,46.31579 h -17.40351 l 8.60819,-22.45614 h 0.18713 z"/>
		<path d="m 845.32385,86.771929 h -35.64912 v 13.567251 h 17.77778 c 0,9.45029 -8.32749,14.87719 -16.74854,14.87719 -10.8538,0 -19.64912,-10.66666 -19.64912,-23.766078 0,-13.380117 8.79532,-24.140352 19.64912,-24.140352 6.83041,0 12.72515,2.713451 17.21637,9.918129 L 839.42912,64.59649 c -6.73685,-8.140351 -16.18714,-13.192983 -29.75439,-13.192983 -21.7076,0 -37.61404,17.871346 -37.61404,40.046785 0,22.081868 16.84211,39.953218 37.61404,39.953218 15.15789,0 31.4386,-8.32749 35.64912,-27.88304 z"/>
		<path d="M 902.17178,52.807016 H 858.00803 V 130 h 44.16375 v -15.4386 h -26.5731 V 99.029239 h 25.45029 V 83.590642 H 875.59868 V 68.245613 h 26.5731 z"/>
		<path d="m 944.40719,91.356724 c 0,22.549706 16.09357,40.046786 38.92398,40.046786 22.17543,0 38.83043,-17.49708 38.83043,-40.046786 0,-22.549708 -17.4035,-39.953217 -38.83043,-39.953217 -21.23977,0 -38.92398,17.403509 -38.92398,39.953217 z m 18.99415,0 c 0,-11.508772 6.36258,-23.017544 19.92983,-23.017544 13.66082,0 19.83623,11.508772 19.83623,23.017544 0,11.508776 -5.80114,23.017546 -19.83623,23.017546 -14.40936,0 -19.92983,-11.50877 -19.92983,-23.017546 z"/>
		<path d="m 1094.2449,52.807016 h -17.5906 v 44.63158 c 0,12.912284 -3.9299,16.654974 -12.5381,16.654974 -8.6081,0 -12.538,-3.74269 -12.538,-16.654974 v -44.63158 h -17.5906 v 49.777774 c 0,19.08772 10.4795,28.81872 30.1286,28.81872 19.6492,0 30.1287,-9.731 30.1287,-28.81872 z"/>
		<path d="m 1100.1162,68.245613 h 18.3392 V 130 h 17.5907 V 68.245613 h 18.3391 V 52.807016 h -54.269 z"/>
	</g>
	<g aria-label="VIRGINIA WOOLF">
		<path d="m 373.13542,290 h 10.38596 l 24.28071,-57.89474 h -14.8772 l -14.59649,38.03509 -14.59649,-38.03509 h -14.87719 z"/>
		<path d="M 428.18476,232.10526 H 414.99178 V 290 h 13.19298 z"/>
		<path d="M 441.64748,232.10526 V 290 h 13.19298 V 267.12281 L 472.52467,290 h 16.77193 l -19.92982,-23.92982 c 7.08772,-2.24562 11.85965,-8.07018 11.85965,-16.77193 0,-11.36842 -8.14035,-17.19299 -18.87719,-17.19299 z m 13.19298,25.68421 v -15.15789 h 1.54386 c 4.98246,0 10.94737,0.35088 10.94737,7.57895 0,7.22807 -5.96491,7.57894 -10.94737,7.57894 z"/>
		<path d="m 549.29989,257.57895 h -26.73684 v 10.17544 h 13.33333 c 0,7.08772 -6.24562,11.15789 -12.56141,11.15789 -8.14035,0 -14.73684,-8 -14.73684,-17.82456 0,-10.03509 6.59649,-18.10526 14.73684,-18.10526 5.12281,0 9.54386,2.03508 12.91229,7.43859 l 8.63157,-9.47368 c -5.05263,-6.10526 -12.14035,-9.89474 -22.31578,-9.89474 -16.28071,0 -28.21053,13.40351 -28.21053,30.03509 0,16.5614 12.63158,29.96491 28.21053,29.96491 11.36842,0 23.57894,-6.24561 26.73684,-20.91228 z"/>
		<path d="M 573.25604,232.10526 H 560.06305 V 290 h 13.19299 z"/>
		<path d="m 599.91174,254.07018 h 0.14035 L 623.06963,290 h 13.19298 v -57.89474 h -13.19298 v 35.92983 h -0.14035 L 599.91174,232.10526 H 586.71876 V 290 h 13.19298 z"/>
		<path d="M 662.8887,232.10526 H 649.69571 V 290 h 13.19299 z"/>
		<path d="M 705.75492,232.10526 H 693.5444 L 670.17598,290 h 14.17543 l 4.28071,-11.57895 H 710.6672 L 714.94791,290 h 14.17543 z m 0.42106,34.73685 H 693.12334 L 699.57948,250 h 0.14036 z"/>
		<path d="m 798.892,290 h 14.5965 l 16.49122,-57.89474 h -14.59649 l -9.89473,39.7193 h -0.35088 l -10.52632,-39.7193 h -9.96491 l -10.52631,39.7193 h -0.35088 l -9.89474,-39.7193 H 749.20779 L 765.69902,290 h 14.66667 l 9.26316,-32.49123 z"/>
		<path d="m 833.35472,261.01754 c 0,16.91228 12.07017,30.03509 29.19298,30.03509 16.63158,0 29.12281,-13.12281 29.12281,-30.03509 0,-16.91228 -13.05264,-29.96491 -29.12281,-29.96491 -15.92983,0 -29.19298,13.05263 -29.19298,29.96491 z m 14.24561,0 c 0,-8.63157 4.77193,-17.26315 14.94737,-17.26315 10.24561,0 14.87719,8.63158 14.87719,17.26315 0,8.63158 -4.35088,17.26316 -14.87719,17.26316 -10.80702,0 -14.94737,-8.63158 -14.94737,-17.26316 z"/>
		<path d="m 899.89527,261.01754 c 0,16.91228 12.07018,30.03509 29.19299,30.03509 16.63158,0 29.1228,-13.12281 29.1228,-30.03509 0,-16.91228 -13.05263,-29.96491 -29.1228,-29.96491 -15.92983,0 -29.19299,13.05263 -29.19299,29.96491 z m 14.24562,0 c 0,-8.63157 4.77193,-17.26315 14.94737,-17.26315 10.24561,0 14.87719,8.63158 14.87719,17.26315 0,8.63158 -4.35088,17.26316 -14.87719,17.26316 -10.80702,0 -14.94737,-8.63158 -14.94737,-17.26316 z"/>
		<path d="M 982.22534,232.10526 H 969.03235 V 290 h 33.12285 v -11.57895 h -19.92986 z"/>
		<path d="m 1047.1168,232.10526 h -33.4737 V 290 h 13.193 v -23.22807 h 18.7368 v -11.57895 h -18.7368 v -11.50877 h 20.2807 z"/>
	</g>
</svg>
